!!!OTL-incipit: ES RATT (REI'T) WOHL AUS DER HAEDE (HEIDE)
!!!ARE: Europa, Mitteleuropa, Deutschland, Kuhlaendchen
!!!SCT: Z0041
!!!TXL: @@DE
!!!YEM: Copyright 1995, estate of Helmut Schaffrath.
**kern	**text
*ICvox	*
*M3/4	*
*k[f#]	*
*G:	*
!LO:TX:a:t=St. Lorenz.	!
!LO:TX:a:t=Aus dem Kuhländchen.	!
{4d	Es
=1	=1
*	*^
8g	ratt	(reit't)
*	*v	*v
8g	wohl
4a	aus
8f#L	der
8dJ	.
=2	=2
*	*^
4g	Hae-	(Haide)
*	*v	*v
4a	-de,
8r}	.
{8a	es
=3	=3
*	*^
8a	ratt	(reit't)
*	*v	*v
8a	wohl
4ee	aus
4a	der
=4	=4
*	*^
4ee	Hae-	(Haide)
*	*v	*v
4dd	-de,
8r}	.
{8dd	der
=5	=5
*	*^
8cc	Wittfrau	(Wittwe)
*	*v	*v
8cc	.
4a	gar
8f#L	ʒu
8f#J	.
=6	=6
*	*^
4g	La-	(Leide)
*	*v	*v
4a	-de,
8r}	.
{8b/	der
=7	=7
*	*^
8cc	Wittfrau	(Wittwe)
*	*v	*v
8cc	.
4a	gar
8f#L	ʒu
8dJ	.
=8	=8
*	*^
4g	La-	(Leide)
*	*v	*v
4a}	-de.
==	==
!!!AGN: Sagen - Lied, Romanze
!!!ONB: ESAC (Essen Associative Code) Database: ZUCCAL
!!!AMT: simple triple
!!!AIN: vox
!!!EED: Helmut Schaffrath
!!!EEV: 1.0
!!!GTL: I. Ernste Romanzen und Sagen.
!!!URL-scan: https://www.digitale-sammlungen.de/de/view/bsb11160571?page=83
!!!ENC: Anna Maria Matuszewska
!!!EEV: 2025/01/23
*-	*-
